img/instagram.svg

<?xml version="1.0" encoding="iso-8859-1"?>
<!-- Generator: Adobe Illustrator 19.0.0, SVG Export Plug-In . SVG Version: 6.00 Build 0)  -->
<svg version="1.1" id="Layer_1" xmlns="http://www.w3.org/2000/svg" xmlns:xlink="http://www.w3.org/1999/xlink" x="0px" y="0px"
	 viewBox="0 0 455.73 455.73" style="enable-background:new 0 0 455.73 455.73;" xml:space="preserve">
<path style="fill:#C536A4;" d="M227.86,182.55c-24.98,0-45.32,20.33-45.32,45.31c0,24.99,20.34,45.33,45.32,45.33
	c24.99,0,45.32-20.34,45.32-45.33C273.18,202.88,252.85,182.55,227.86,182.55z M227.86,182.55c-24.98,0-45.32,20.33-45.32,45.31
	c0,24.99,20.34,45.33,45.32,45.33c24.99,0,45.32-20.34,45.32-45.33C273.18,202.88,252.85,182.55,227.86,182.55z M303.36,108.66
	H152.37c-24.1,0-43.71,19.61-43.71,43.71v150.99c0,24.1,19.61,43.71,43.71,43.71h150.99c24.1,0,43.71-19.61,43.71-43.71V152.37
	C347.07,128.27,327.46,108.66,303.36,108.66z M227.86,306.35c-43.27,0-78.48-35.21-78.48-78.49c0-43.27,35.21-78.48,78.48-78.48
	c43.28,0,78.49,35.21,78.49,78.48C306.35,271.14,271.14,306.35,227.86,306.35z M308.87,165.61c-10.24,0-18.57-8.33-18.57-18.57
	s8.33-18.57,18.57-18.57s18.57,8.33,18.57,18.57S319.11,165.61,308.87,165.61z M227.86,182.55c-24.98,0-45.32,20.33-45.32,45.31
	c0,24.99,20.34,45.33,45.32,45.33c24.99,0,45.32-20.34,45.32-45.33C273.18,202.88,252.85,182.55,227.86,182.55z M303.36,108.66
	H152.37c-24.1,0-43.71,19.61-43.71,43.71v150.99c0,24.1,19.61,43.71,43.71,43.71h150.99c24.1,0,43.71-19.61,43.71-43.71V152.37
	C347.07,128.27,327.46,108.66,303.36,108.66z M227.86,306.35c-43.27,0-78.48-35.21-78.48-78.49c0-43.27,35.21-78.48,78.48-78.48
	c43.28,0,78.49,35.21,78.49,78.48C306.35,271.14,271.14,306.35,227.86,306.35z M308.87,165.61c-10.24,0-18.57-8.33-18.57-18.57
	s8.33-18.57,18.57-18.57s18.57,8.33,18.57,18.57S319.11,165.61,308.87,165.61z M227.86,182.55c-24.98,0-45.32,20.33-45.32,45.31
	c0,24.99,20.34,45.33,45.32,45.33c24.99,0,45.32-20.34,45.32-45.33C273.18,202.88,252.85,182.55,227.86,182.55z M0,0v455.73h455.73
	V0H0z M380.23,303.36c0,42.39-34.48,76.87-76.87,76.87H152.37c-42.39,0-76.87-34.48-76.87-76.87V152.37
	c0-42.39,34.48-76.87,76.87-76.87h150.99c42.39,0,76.87,34.48,76.87,76.87V303.36z M303.36,108.66H152.37
	c-24.1,0-43.71,19.61-43.71,43.71v150.99c0,24.1,19.61,43.71,43.71,43.71h150.99c24.1,0,43.71-19.61,43.71-43.71V152.37
	C347.07,128.27,327.46,108.66,303.36,108.66z M227.86,306.35c-43.27,0-78.48-35.21-78.48-78.49c0-43.27,35.21-78.48,78.48-78.48
	c43.28,0,78.49,35.21,78.49,78.48C306.35,271.14,271.14,306.35,227.86,306.35z M308.87,165.61c-10.24,0-18.57-8.33-18.57-18.57
	s8.33-18.57,18.57-18.57s18.57,8.33,18.57,18.57S319.11,165.61,308.87,165.61z M227.86,182.55c-24.98,0-45.32,20.33-45.32,45.31
	c0,24.99,20.34,45.33,45.32,45.33c24.99,0,45.32-20.34,45.32-45.33C273.18,202.88,252.85,182.55,227.86,182.55z M227.86,182.55
	c-24.98,0-45.32,20.33-45.32,45.31c0,24.99,20.34,45.33,45.32,45.33c24.99,0,45.32-20.34,45.32-45.33
	C273.18,202.88,252.85,182.55,227.86,182.55z M227.86,182.55c-24.98,0-45.32,20.33-45.32,45.31c0,24.99,20.34,45.33,45.32,45.33
	c24.99,0,45.32-20.34,45.32-45.33C273.18,202.88,252.85,182.55,227.86,182.55z M303.36,108.66H152.37
	c-24.1,0-43.71,19.61-43.71,43.71v150.99c0,24.1,19.61,43.71,43.71,43.71h150.99c24.1,0,43.71-19.61,43.71-43.71V152.37
	C347.07,128.27,327.46,108.66,303.36,108.66z M227.86,306.35c-43.27,0-78.48-35.21-78.48-78.49c0-43.27,35.21-78.48,78.48-78.48
	c43.28,0,78.49,35.21,78.49,78.48C306.35,271.14,271.14,306.35,227.86,306.35z M308.87,165.61c-10.24,0-18.57-8.33-18.57-18.57
	s8.33-18.57,18.57-18.57s18.57,8.33,18.57,18.57S319.11,165.61,308.87,165.61z M227.86,182.55c-24.98,0-45.32,20.33-45.32,45.31
	c0,24.99,20.34,45.33,45.32,45.33c24.99,0,45.32-20.34,45.32-45.33C273.18,202.88,252.85,182.55,227.86,182.55z M227.86,182.55
	c-24.98,0-45.32,20.33-45.32,45.31c0,24.99,20.34,45.33,45.32,45.33c24.99,0,45.32-20.34,45.32-45.33
	C273.18,202.88,252.85,182.55,227.86,182.55z M227.86,182.55c-24.98,0-45.32,20.33-45.32,45.31c0,24.99,20.34,45.33,45.32,45.33
	c24.99,0,45.32-20.34,45.32-45.33C273.18,202.88,252.85,182.55,227.86,182.55z M303.36,108.66H152.37
	c-24.1,0-43.71,19.61-43.71,43.71v150.99c0,24.1,19.61,43.71,43.71,43.71h150.99c24.1,0,43.71-19.61,43.71-43.71V152.37
	C347.07,128.27,327.46,108.66,303.36,108.66z M227.86,306.35c-43.27,0-78.48-35.21-78.48-78.49c0-43.27,35.21-78.48,78.48-78.48
	c43.28,0,78.49,35.21,78.49,78.48C306.35,271.14,271.14,306.35,227.86,306.35z M308.87,165.61c-10.24,0-18.57-8.33-18.57-18.57
	s8.33-18.57,18.57-18.57s18.57,8.33,18.57,18.57S319.11,165.61,308.87,165.61z M227.86,182.55c-24.98,0-45.32,20.33-45.32,45.31
	c0,24.99,20.34,45.33,45.32,45.33c24.99,0,45.32-20.34,45.32-45.33C273.18,202.88,252.85,182.55,227.86,182.55z"/>
</svg>

<svg width="456" height="456" viewBox="0 0 456 456" fill="none" xmlns="http://www.w3.org/2000/svg">
<g clip-path="url(#clip0)">
<path d="M227.86 182.55C202.88 182.55 182.54 202.88 182.54 227.86C182.54 252.85 202.88 273.19 227.86 273.19C252.85 273.19 273.18 252.85 273.18 227.86C273.18 202.88 252.85 182.55 227.86 182.55ZM227.86 182.55C202.88 182.55 182.54 202.88 182.54 227.86C182.54 252.85 202.88 273.19 227.86 273.19C252.85 273.19 273.18 252.85 273.18 227.86C273.18 202.88 252.85 182.55 227.86 182.55ZM303.36 108.66H152.37C128.27 108.66 108.66 128.27 108.66 152.37V303.36C108.66 327.46 128.27 347.07 152.37 347.07H303.36C327.46 347.07 347.07 327.46 347.07 303.36V152.37C347.07 128.27 327.46 108.66 303.36 108.66ZM227.86 306.35C184.59 306.35 149.38 271.14 149.38 227.86C149.38 184.59 184.59 149.38 227.86 149.38C271.14 149.38 306.35 184.59 306.35 227.86C306.35 271.14 271.14 306.35 227.86 306.35ZM308.87 165.61C298.63 165.61 290.3 157.28 290.3 147.04C290.3 136.8 298.63 128.47 308.87 128.47C319.11 128.47 327.44 136.8 327.44 147.04C327.44 157.28 319.11 165.61 308.87 165.61ZM227.86 182.55C202.88 182.55 182.54 202.88 182.54 227.86C182.54 252.85 202.88 273.19 227.86 273.19C252.85 273.19 273.18 252.85 273.18 227.86C273.18 202.88 252.85 182.55 227.86 182.55ZM303.36 108.66H152.37C128.27 108.66 108.66 128.27 108.66 152.37V303.36C108.66 327.46 128.27 347.07 152.37 347.07H303.36C327.46 347.07 347.07 327.46 347.07 303.36V152.37C347.07 128.27 327.46 108.66 303.36 108.66ZM227.86 306.35C184.59 306.35 149.38 271.14 149.38 227.86C149.38 184.59 184.59 149.38 227.86 149.38C271.14 149.38 306.35 184.59 306.35 227.86C306.35 271.14 271.14 306.35 227.86 306.35ZM308.87 165.61C298.63 165.61 290.3 157.28 290.3 147.04C290.3 136.8 298.63 128.47 308.87 128.47C319.11 128.47 327.44 136.8 327.44 147.04C327.44 157.28 319.11 165.61 308.87 165.61ZM227.86 182.55C202.88 182.55 182.54 202.88 182.54 227.86C182.54 252.85 202.88 273.19 227.86 273.19C252.85 273.19 273.18 252.85 273.18 227.86C273.18 202.88 252.85 182.55 227.86 182.55ZM20 0C8.95429 0 0 8.95431 0 20V435.73C0 446.776 8.95431 455.73 20 455.73H435.73C446.776 455.73 455.73 446.776 455.73 435.73V20C455.73 8.95429 446.776 0 435.73 0H20ZM380.23 303.36C380.23 345.75 345.75 380.23 303.36 380.23H152.37C109.98 380.23 75.5 345.75 75.5 303.36V152.37C75.5 109.98 109.98 75.5 152.37 75.5H303.36C345.75 75.5 380.23 109.98 380.23 152.37V303.36ZM303.36 108.66H152.37C128.27 108.66 108.66 128.27 108.66 152.37V303.36C108.66 327.46 128.27 347.07 152.37 347.07H303.36C327.46 347.07 347.07 327.46 347.07 303.36V152.37C347.07 128.27 327.46 108.66 303.36 108.66ZM227.86 306.35C184.59 306.35 149.38 271.14 149.38 227.86C149.38 184.59 184.59 149.38 227.86 149.38C271.14 149.38 306.35 184.59 306.35 227.86C306.35 271.14 271.14 306.35 227.86 306.35ZM308.87 165.61C298.63 165.61 290.3 157.28 290.3 147.04C290.3 136.8 298.63 128.47 308.87 128.47C319.11 128.47 327.44 136.8 327.44 147.04C327.44 157.28 319.11 165.61 308.87 165.61ZM227.86 182.55C202.88 182.55 182.54 202.88 182.54 227.86C182.54 252.85 202.88 273.19 227.86 273.19C252.85 273.19 273.18 252.85 273.18 227.86C273.18 202.88 252.85 182.55 227.86 182.55ZM227.86 182.55C202.88 182.55 182.54 202.88 182.54 227.86C182.54 252.85 202.88 273.19 227.86 273.19C252.85 273.19 273.18 252.85 273.18 227.86C273.18 202.88 252.85 182.55 227.86 182.55ZM227.86 182.55C202.88 182.55 182.54 202.88 182.54 227.86C182.54 252.85 202.88 273.19 227.86 273.19C252.85 273.19 273.18 252.85 273.18 227.86C273.18 202.88 252.85 182.55 227.86 182.55ZM303.36 108.66H152.37C128.27 108.66 108.66 128.27 108.66 152.37V303.36C108.66 327.46 128.27 347.07 152.37 347.07H303.36C327.46 347.07 347.07 327.46 347.07 303.36V152.37C347.07 128.27 327.46 108.66 303.36 108.66ZM227.86 306.35C184.59 306.35 149.38 271.14 149.38 227.86C149.38 184.59 184.59 149.38 227.86 149.38C271.14 149.38 306.35 184.59 306.35 227.86C306.35 271.14 271.14 306.35 227.86 306.35ZM308.87 165.61C298.63 165.61 290.3 157.28 290.3 147.04C290.3 136.8 298.63 128.47 308.87 128.47C319.11 128.47 327.44 136.8 327.44 147.04C327.44 157.28 319.11 165.61 308.87 165.61ZM227.86 182.55C202.88 182.55 182.54 202.88 182.54 227.86C182.54 252.85 202.88 273.19 227.86 273.19C252.85 273.19 273.18 252.85 273.18 227.86C273.18 202.88 252.85 182.55 227.86 182.55ZM227.86 182.55C202.88 182.55 182.54 202.88 182.54 227.86C182.54 252.85 202.88 273.19 227.86 273.19C252.85 273.19 273.18 252.85 273.18 227.86C273.18 202.88 252.85 182.55 227.86 182.55ZM227.86 182.55C202.88 182.55 182.54 202.88 182.54 227.86C182.54 252.85 202.88 273.19 227.86 273.19C252.85 273.19 273.18 252.85 273.18 227.86C273.18 202.88 252.85 182.55 227.86 182.55ZM303.36 108.66H152.37C128.27 108.66 108.66 128.27 108.66 152.37V303.36C108.66 327.46 128.27 347.07 152.37 347.07H303.36C327.46 347.07 347.07 327.46 347.07 303.36V152.37C347.07 128.27 327.46 108.66 303.36 108.66ZM227.86 306.35C184.59 306.35 149.38 271.14 149.38 227.86C149.38 184.59 184.59 149.38 227.86 149.38C271.14 149.38 306.35 184.59 306.35 227.86C306.35 271.14 271.14 306.35 227.86 306.35ZM308.87 165.61C298.63 165.61 290.3 157.28 290.3 147.04C290.3 136.8 298.63 128.47 308.87 128.47C319.11 128.47 327.44 136.8 327.44 147.04C327.44 157.28 319.11 165.61 308.87 165.61ZM227.86 182.55C202.88 182.55 182.54 202.88 182.54 227.86C182.54 252.85 202.88 273.19 227.86 273.19C252.85 273.19 273.18 252.85 273.18 227.86C273.18 202.88 252.85 182.55 227.86 182.55Z" fill="#C536A4"/>
</g>
<defs>
<clipPath id="clip0">
<rect width="455.73" height="455.73" fill="white"/>
</clipPath>
</defs>
</svg>
